X:248
T:Geese in the Bog, The
T:Old Geese in the Bog, The
R:jig
H:Also played in D, #350
D:Music at Matt Molloy's
Z:id:hn-jig-248
M:6/8
K:Ador
cEE GEE|cEE GAB|cEE GED|EAA A2B|
cEE GEE|cEE GAB|cBA GED|EAA A2B:|
|:cde ged|eaf ged|cde ged|eag a2B|
cde ged|eaf ged|cBA BAG|EAA A2B:|
